X: 117
T: No_203_Song_Used_in_Treatment_of_Lumbago.krn
N: Derived from No_203_Song_Used_in_Treatment_of_Lumbago.krn
%%abc-version 2.0
%%abcx-abcm2ps-target-version 5.9.1 (29 Sep 2008)
%%abc-creator hum2abc beta
%%abcx-conversion-date 2019/03/15 08:38:45
%%humdrum-veritas 2120633975
%%humdrum-veritas-data 449266225
%%linebreak <none>
%%barnumbers 0
L: 1/8
M: 3/4
K: Bb clef=bass
[K:clef=bass][M:3/4]z4FF [I:setbarnb 2]| 
D4FF ||  
[M:2/4]D4 | 
(3CDCB,2 | 
C4 | 
B,4 | 
F, z F, z :|]  
[M:3/4]F,z4F | 
[M:2/4]F4 [I:setbarnb 10]| 
D2FF | 
D4- | 
D2FF | 
D4 | 
(3CDCB,2 | 
C4 | 
B,4 | 
F,z2F :|]  
[M:3/4]F, zz4 ||  
[M:2/4]FF (3FFF | 
F3E ||  
[M:3/4]C3E E z ||  
[M:2/4]FF (3FFF | 
FE- EC | 
B,2(3:2:4CCC/ z/ | 
FE FE | 
EC- CB, | 
(3:2:8(B,/F,/) z/ B, B,F,/ z/ B, ||  
[M:3/4]B,3/B,/ B,z2G ]|:  
F3GF2 ||  
[M:2/4]F2z E ||  
[M:3/4]ED CB, C3/B,/ ||  
[M:2/4]G,3/B,/B,2 | 
B,2G, z | 
(3B,B,B, G,3/B,/ | 
B,3G, | 
B,2z G/G/ [I:setbarnb 37]:|]  
B, zz2 |]  



